X: 06092
T: TERESA'S REEL
C: Bob McQuillen 14 Feb 82
B: Bob's Note Book 6 #92
%R: reel
Z: 2021 John Chambers <jc:trillian.mit.edu>
M: C
L: 1/8
K: D
FE \
| DFAB AGFE | DFAd f2ef | g2e2 efed | cedB AGFE |\
| DFAB AGFE | DFAd f2ef | geag fded | A2d2 d2 :|
|: fg \
| abaf gfed | AdBd Adfa | gfef dfed | cBAB AGFE |\
| DFAB Adfd | ABAF Adfa | bagf gecd | e2d2 d2 :|
%%begintext align
%% Teresa Wyman likes our music
%% and we like Teresa, so here's a
%% tune of your own, Teresa - hope you
%% like it -
%%endtext

%%sep 1 1 500

%%sep 1 1 500

